%
N2 (Post Rev 1.0)
N3 (OCT-08-2015-12:34:55PM)
N4 (TOOL 1 - DIA 3.175)
G17 G40 G80 G00 G21
N5 M06 T1 ()
N6 (P-contour-1)
N7 G00 G54 X111.425 Y140. A0. S1000 M03 
N8 Z10. 
N9 Z2. 
N10 G01 G94 Z-4. F300. 
N11 Y141.425 F600. 
N12 X108.575 
N13 Y134.8769 
N14 G02 X110. Y134.087 I93.5 J106. 
N15 X111.425 Y134.8769 I126.5 J106. 
N16 G01 Y140. 
N17 X113.0125 
N18 Y143.0125 
N19 X106.9875 
N20 Y133.8983 
N21 G02 X110. Y132.2293 I93.5 J106. 
N22 X113.0125 Y133.8983 I126.5 J106. 
N23 G01 Y140. 
N24 X114.6 
N25 Y144.6 
N26 X105.4 
N27 Y132.884 
N28 G02 X110. Y130.3333 I93.5 J106. 
N29 X114.6 Y132.884 I126.5 J106. 
N30 G01 Y140. 
N31 X116.1875 
N32 Y146.1875 
N33 X103.8125 
N34 Y131.83 
N35 G02 X110. Y128.3894 I93.5 J106. 
N36 X116.1875 Y131.83 I126.5 J106. 
N37 G01 Y140. 
N38 X117.775 
N39 Y147.775 
N40 X102.225 
N41 Y130.731 
N42 G02 X110. Y126.3838 I93.5 J106. 
N43 X117.775 Y130.731 I126.5 J106. 
N44 G01 Y140. 
N45 X119.3625 
N46 Y149.3625 
N47 X100.6375 
N48 Y129.581 
N49 G02 X110. Y124.2963 I93.5 J106. 
N50 X119.3625 Y129.581 I126.5 J106. 
N51 G01 Y140. 
N52 X120.95 
N53 Y150.95 
N54 X99.05 
N55 Y128.3719 
N56 G02 X110. Y122.0951 I93.5 J106. 
N57 X120.95 Y128.3719 I126.5 J106. 
N58 G01 Y140. 
N59 X122.5375 
N60 Y152.5375 
N61 X97.4625 
N62 Y127.0935 
N63 G02 X110. Y119.7255 I93.5 J106. 
N64 X122.5375 Y127.0935 I126.5 J106. 
N65 G01 Y140. 
N66 X124.125 
N67 Y154.125 
N68 X95.875 
N69 Y125.7326 
N70 G02 X110. Y117.08 I93.5 J106. 
N71 X124.125 Y125.7326 I126.5 J106. 
N72 G01 Y140. 
N73 X125.7125 
N74 Y155.7125 
N75 X94.2875 
N76 Y124.2705 
N77 G02 X110. Y113.8856 I93.5 J106. 
N78 X125.7125 Y124.2705 I126.5 J106. 
N79 G01 Y140. 
N80 X127.3 
N81 Y157.3 
N82 X92.7 
N83 Y122.7 
N84 X93.5 
N85 G02 X110. Y108.5768 I93.5 J106. 
N86 X126.5 Y122.7 I126.5 J106. 
N87 G01 X127.3 
N88 Y140. 
N89 X128.8875 
N90 Y158.8875 
N91 X91.1125 
N92 Y121.1125 
N93 X93.5 
N94 G02 X108.6125 Y106. I93.5 J106. 
N95 G01 Y98.7699 
N96 X110. Y96.9604 
N97 X111.3875 Y98.7699 
N98 Y106. 
N99 G02 X126.5 Y121.1125 I126.5 J106. 
N100 G01 X128.8875 
N101 Y140. 
N102 X130.475 
N103 Y160.475 
N104 X89.525 
N105 Y119.525 
N106 X93.5 
N107 G02 X107.025 Y106. I93.5 J106. 
N108 G01 Y98.2314 
N109 X110. Y94.3514 
N110 X112.975 Y98.2314 
N111 Y106. 
N112 G02 X126.5 Y119.525 I126.5 J106. 
N113 G01 X130.475 
N114 Y140. 
N115 X132.0625 
N116 Y162.0625 
N117 X87.9375 
N118 Y117.9375 
N119 X93.5 
N120 G02 X105.4375 Y106. I93.5 J106. 
N121 G01 Y97.6928 
N122 X110. Y91.7424 
N123 X114.5625 Y97.6928 
N124 Y106. 
N125 G02 X126.5 Y117.9375 I126.5 J106. 
N126 G01 X132.0625 
N127 Y140. 
N128 X133.65 
N129 Y163.65 
N130 X86.35 
N131 Y116.35 
N132 X93.5 
N133 G02 X103.85 Y106. I93.5 J106. 
N134 G01 Y97.1543 
N135 X109.4199 Y89.8899 
N136 G02 X110. Y89.0404 I102. J84.2007 
N137 X110.5801 Y89.8899 I118. J84.2007 
N138 G01 X116.15 Y97.1543 
N139 Y106. 
N140 G02 X126.5 Y116.35 I126.5 J106. 
N141 G01 X133.65 
N142 Y140. 
N143 X121.3516 Y108.1969 
N144 G03 X121.1566 Y107.6675 I126.5 J106. 
N145 G01 X113.6462 Y85.6777 
N146 G03 X113.4298 Y84.7009 I118. J84.2007 
N147 G01 X108.65 Y51.4328 
N148 G02 X108.184 Y50.9925 I102. J58.0054 
N149 G01 X108.65 
N150 Y51.4328 
N151 X74.647 Y29.6054 
N152 X74.2856 
N153 G02 X74.647 Y28.1857 I46.953 J21.8925 
N154 G01 Y31.1929 
N155 X72.1008 
N156 G02 X73.6967 Y23.8125 I46.953 J21.8925 
N157 G01 X76.2345 
N158 Y31.1929 
N159 X74.647 
N160 Y32.7804 
N161 X70.6624 
N162 G02 X70.2175 Y31.6425 I46.953 J41.3925 
N163 X72.1758 Y22.225 I46.953 J21.8925 
N164 G01 X77.822 
N165 Y32.7804 
N166 X74.647 
N167 Y34.368 
N168 X69.5226 
N169 G02 X68.486 Y31.6425 I46.953 J41.3925 
N170 X70.5905 Y21.8925 I46.953 J21.8925 
N171 G01 Y20.6375 
N172 X79.4095 
N173 Y34.368 
N174 X74.647 
N175 Y35.9554 
N176 X68.3222 
N177 G02 X66.7303 Y31.6425 I46.953 J41.3925 
N178 X69.003 Y21.8925 I46.953 J21.8925 
N179 G01 Y19.05 
N180 X80.997 
N181 Y35.9554 
N182 X74.647 
N183 Y37.5429 
N184 X67.0501 
N185 G02 X64.9433 Y31.6425 I46.953 J41.3925 
N186 X67.4155 Y21.8925 I46.953 J21.8925 
N187 G01 Y17.4625 
N188 X82.5845 
N189 Y37.5429 
N190 X74.647 
N191 Y39.1304 
N192 X65.692 
N193 G02 X63.1148 Y31.6425 I46.953 J41.3925 
N194 X65.828 Y21.8925 I46.953 J21.8925 
N195 G01 Y15.875 
N196 X84.172 
N197 Y39.1304 
N198 X74.647 
N199 Y40.7179 
N200 X64.2273 
N201 G02 X61.2287 Y31.6425 I46.953 J41.3925 
N202 X64.2405 Y21.8925 I46.953 J21.8925 
N203 G01 Y14.2875 
N204 X85.7595 
N205 Y40.7179 
N206 X74.647 
N207 Y42.3055 
N208 X62.639 
N209 G02 X62.653 Y41.6425 I46.953 J41.6425 
N210 G01 Y41.3925 
N211 G02 X59.2586 Y31.6425 I46.953 J41.3925 
N212 X62.653 Y21.8925 I46.953 J21.8925 
N213 G01 Y12.7 
N214 X87.347 
N215 Y41.6425 
N216 G02 X87.361 Y42.3055 I103.047 J41.6425 
N217 G01 X74.647 
N218 Y43.8929 
N219 X60.8849 
N220 G02 X61.0655 Y41.6425 I46.953 J41.6425 
N221 G01 Y41.3925 
N222 G02 X57.156 Y31.6425 I46.953 J41.3925 
N223 X61.0655 Y21.8925 I46.953 J21.8925 
N224 G01 Y11.1125 
N225 X88.9345 
N226 Y41.6425 
N227 G02 X89.1151 Y43.8929 I103.047 J41.6425 
N228 G01 X74.647 
N229 Y45.4804 
N230 X58.8755 
N231 G02 X59.478 Y41.6425 I46.953 J41.6425 
N232 G01 Y41.3925 
N233 G02 X54.8151 Y31.6425 I46.953 J41.3925 
N234 X59.478 Y21.8925 I46.953 J21.8925 
N235 G01 Y9.525 
N236 X90.522 
N237 Y41.6425 
N238 G02 X91.1245 Y45.4804 I103.047 J41.6425 
N239 G01 X74.647 
N240 Y47.0679 
N241 X56.45 
N242 G02 X57.8905 Y41.6425 I46.953 J41.6425 
N243 G01 Y41.3925 
N244 G02 X51.9095 Y31.6425 I46.953 J41.3925 
N245 X57.8905 Y21.8925 I46.953 J21.8925 
N246 G01 Y7.9375 
N247 X92.1095 
N248 Y41.6425 
N249 G02 X93.55 Y47.0679 I103.047 J41.6425 
N250 G01 X74.647 
N251 Y48.6554 
N252 X53.137 
N253 G02 X56.303 Y41.6425 I46.953 J41.6425 
N254 G01 Y41.3925 
N255 G02 X46.953 Y32.0425 I46.953 J41.3925 
N256 G01 X44.6447 
N257 X43.9472 Y31.6425 
N258 X44.6447 Y31.2425 
N259 X46.953 
N260 G02 X56.303 Y21.8925 I46.953 J21.8925 
N261 G01 Y6.35 
N262 X93.697 
N263 Y41.6425 
N264 G02 X96.863 Y48.6554 I103.047 J41.6425 
N265 G01 X74.647 
N266 X41.816 Y50.9925 
N267 G02 X41.35 Y51.4328 I48. J58.0054 
N268 G01 Y50.9925 
N269 X41.816 
N270 X40. Y134.087 
N271 G02 X41.425 Y134.8769 I56.5 J106. 
N272 G01 Y141.425 
N273 X38.575 
N274 Y134.8769 
N275 G02 X40. Y134.087 I23.5 J106. 
N276 G01 X39.1959 Y132.7182 
N277 G02 X40. Y132.2293 I23.5 J106. 
N278 X43.0125 Y133.8983 I56.5 J106. 
N279 G01 Y143.0125 
N280 X36.9875 
N281 Y133.8983 
N282 G02 X39.1959 Y132.7182 I23.5 J106. 
N283 G01 X38.3918 Y131.3495 
N284 G02 X40. Y130.3333 I23.5 J106. 
N285 X44.6 Y132.884 I56.5 J106. 
N286 G01 Y144.6 
N287 X35.4 
N288 Y132.884 
N289 G02 X38.3918 Y131.3495 I23.5 J106. 
N290 G01 X37.5877 Y129.9807 
N291 G02 X40. Y128.3894 I23.5 J106. 
N292 X46.1875 Y131.83 I56.5 J106. 
N293 G01 Y146.1875 
N294 X33.8125 
N295 Y131.83 
N296 G02 X37.5877 Y129.9807 I23.5 J106. 
N297 G01 X36.7836 Y128.6119 
N298 G02 X40. Y126.3838 I23.5 J106. 
N299 X47.775 Y130.731 I56.5 J106. 
N300 G01 Y147.775 
N301 X32.225 
N302 Y130.731 
N303 G02 X36.7836 Y128.6119 I23.5 J106. 
N304 G01 X35.9795 Y127.2431 
N305 G02 X40. Y124.2963 I23.5 J106. 
N306 X49.3625 Y129.581 I56.5 J106. 
N307 G01 Y149.3625 
N308 X30.6375 
N309 Y129.581 
N310 G02 X35.9795 Y127.2431 I23.5 J106. 
N311 G01 X35.1754 Y125.8743 
N312 G02 X40. Y122.0951 I23.5 J106. 
N313 X50.95 Y128.3719 I56.5 J106. 
N314 G01 Y150.95 
N315 X29.05 
N316 Y128.3719 
N317 G02 X35.1754 Y125.8743 I23.5 J106. 
N318 G01 X34.3713 Y124.5055 
N319 G02 X40. Y119.7255 I23.5 J106. 
N320 X52.5375 Y127.0935 I56.5 J106. 
N321 G01 Y152.5375 
N322 X27.4625 
N323 Y127.0935 
N324 G02 X34.3713 Y124.5055 I23.5 J106. 
N325 G01 X33.5672 Y123.1367 
N326 G02 X40. Y117.08 I23.5 J106. 
N327 X54.125 Y125.7326 I56.5 J106. 
N328 G01 Y154.125 
N329 X25.875 
N330 Y125.7326 
N331 G02 X33.5672 Y123.1367 I23.5 J106. 
N332 G01 X32.7631 Y121.768 
N333 G02 X40. Y113.8856 I23.5 J106. 
N334 X55.7125 Y124.2705 I56.5 J106. 
N335 G01 Y155.7125 
N336 X24.2875 
N337 Y124.2705 
N338 G02 X32.7631 Y121.768 I23.5 J106. 
N339 G01 X31.9589 Y120.3992 
N340 G02 X40. Y108.5768 I23.5 J106. 
N341 X56.5 Y122.7 I56.5 J106. 
N342 G01 X57.3 
N343 Y157.3 
N344 X22.7 
N345 Y122.7 
N346 X23.5 
N347 G02 X31.9589 Y120.3992 I23.5 J106. 
N348 G01 X31.1548 Y119.0304 
N349 G02 X38.6125 Y106. I23.5 J106. 
N350 G01 Y98.7699 
N351 X40. Y96.9604 
N352 X41.3875 Y98.7699 
N353 Y106. 
N354 G02 X56.5 Y121.1125 I56.5 J106. 
N355 G01 X58.8875 
N356 Y158.8875 
N357 X21.1125 
N358 Y121.1125 
N359 X23.5 
N360 G02 X31.1548 Y119.0304 I23.5 J106. 
N361 G01 X30.3507 Y117.6616 
N362 G02 X37.025 Y106. I23.5 J106. 
N363 G01 Y98.2314 
N364 X40. Y94.3514 
N365 X42.975 Y98.2314 
N366 Y106. 
N367 G02 X56.5 Y119.525 I56.5 J106. 
N368 G01 X60.475 
N369 Y160.475 
N370 X19.525 
N371 Y119.525 
N372 X23.5 
N373 G02 X30.3507 Y117.6616 I23.5 J106. 
N374 G01 X29.5466 Y116.2928 
N375 G02 X35.4375 Y106. I23.5 J106. 
N376 G01 Y97.6928 
N377 X40. Y91.7424 
N378 X44.5625 Y97.6928 
N379 Y106. 
N380 G02 X56.5 Y117.9375 I56.5 J106. 
N381 G01 X62.0625 
N382 Y162.0625 
N383 X17.9375 
N384 Y117.9375 
N385 X23.5 
N386 G02 X29.5466 Y116.2928 I23.5 J106. 
N387 G01 X28.7425 Y114.924 
N388 G02 X33.85 Y106. I23.5 J106. 
N389 G01 Y97.1543 
N390 X39.4199 Y89.8899 
N391 G02 X40. Y89.0404 I32. J84.2007 
N392 X40.5801 Y89.8899 I48. J84.2007 
N393 G01 X46.15 Y97.1543 
N394 Y106. 
N395 G02 X56.5 Y116.35 I56.5 J106. 
N396 G01 X63.65 
N397 Y163.65 
N398 X16.35 
N399 Y116.35 
N400 X23.5 
N401 G02 X28.7425 Y114.924 I23.5 J106. 
N402 G01 X27.9384 Y113.5553 
N403 G02 X32.2625 Y106. I23.5 J106. 
N404 G01 Y96.6157 
N405 X38.1601 Y88.924 
N406 G02 X39.7625 Y84.2007 I32. J84.2007 
N407 G01 Y49.405 
N408 X46.953 
N409 G02 X54.7155 Y41.6425 I46.953 J41.6425 
N410 G01 Y41.3925 
N411 G02 X46.953 Y33.63 I46.953 J41.3925 
N412 G01 X44.2218 
N413 X40.7563 Y31.6425 
N414 X44.2218 Y29.655 
N415 X46.953 
N416 G02 X54.7155 Y21.8925 I46.953 J21.8925 
N417 G01 Y4.7625 
N418 X95.2845 
N419 Y41.6425 
N420 G02 X103.047 Y49.405 I103.047 J41.6425 
N421 G01 X110.2375 
N422 Y84.2007 
N423 G02 X111.8399 Y88.924 I118. J84.2007 
N424 G01 X117.7375 Y96.6157 
N425 Y106. 
N426 G02 X126.5 Y114.7625 I126.5 J106. 
N427 G01 X135.2375 
N428 Y165.2375 
N429 X84.7625 
N430 Y114.7625 
N431 X93.5 
N432 G02 X102.2625 Y106. I93.5 J106. 
N433 G01 Y96.6157 
N434 X108.1601 Y88.924 
N435 G02 X109.7625 Y84.2007 I102. J84.2007 
N436 G01 Y58.0054 
N437 G02 X102. Y50.243 I102. J58.0054 
N438 G01 X48. 
N439 G02 X40.2375 Y58.0054 I48. J58.0054 
N440 G01 Y84.2007 
N441 G02 X41.8399 Y88.924 I48. J84.2007 
N442 G01 X47.7375 Y96.6157 
N443 Y106. 
N444 G02 X56.5 Y114.7625 I56.5 J106. 
N445 G01 X65.2375 
N446 Y165.2375 
N447 X14.7625 
N448 Y114.7625 
N449 X23.5 
N450 G02 X27.9384 Y113.5553 I23.5 J106. 
N451 G01 X27.1343 Y112.1865 
N452 G02 X30.675 Y106. I23.5 J106. 
N453 G01 Y96.0771 
N454 X36.9003 Y87.958 
N455 G02 X38.175 Y84.2007 I32. J84.2007 
N456 G01 Y47.8175 
N457 X46.953 
N458 G02 X53.128 Y41.6425 I46.953 J41.6425 
N459 G01 Y41.3925 
N460 G02 X46.953 Y35.2175 I46.953 J41.3925 
N461 G01 X43.7988 
N462 X39.559 Y32.7859 
N463 G02 X36.4869 Y31.9675 I36.4869 J38.1425 
N464 G01 X27.7943 
N465 Y3.175 
N466 X28.4443 
N467 Y25.1425 
N468 G02 X34.6193 Y31.3175 I34.6193 J25.1425 
N469 G01 X36.4869 
N470 G02 X39.559 Y30.4991 I36.4869 J25.1425 
N471 G01 X43.7988 Y28.0675 
N472 X46.953 
N473 G02 X53.128 Y21.8925 I46.953 J21.8925 
N474 G01 Y3.175 
N475 X96.872 
N476 Y41.6425 
N477 G02 X103.047 Y47.8175 I103.047 J41.6425 
N478 G01 X111.825 
N479 Y84.2007 
N480 G02 X113.0997 Y87.958 I118. J84.2007 
N481 G01 X119.325 Y96.0771 
N482 Y106. 
N483 G02 X126.5 Y113.175 I126.5 J106. 
N484 G01 X136.825 
N485 Y166.825 
N486 X83.175 
N487 Y113.175 
N488 X93.5 
N489 G02 X100.675 Y106. I93.5 J106. 
N490 G01 Y96.0771 
N491 X106.9003 Y87.958 
N492 G02 X108.175 Y84.2007 I102. J84.2007 
N493 G01 Y58.0054 
N494 G02 X102. Y51.8304 I102. J58.0054 
N495 G01 X48. 
N496 G02 X41.825 Y58.0054 I48. J58.0054 
N497 G01 Y84.2007 
N498 G02 X43.0997 Y87.958 I48. J84.2007 
N499 G01 X49.325 Y96.0771 
N500 Y106. 
N501 G02 X56.5 Y113.175 I56.5 J106. 
N502 G01 X66.825 
N503 Y166.825 
N504 X13.175 
N505 Y113.175 
N506 X23.5 
N507 G02 X27.1343 Y112.1865 I23.5 J106. 
N508 G01 X26.3302 Y110.8177 
N509 G02 X29.0875 Y106. I23.5 J106. 
N510 G01 Y96.0178 
N511 G03 X29.3791 Y95.1583 I30.5 J96.0178 
N512 G01 X35.6405 Y86.9921 
N513 G02 X36.5875 Y84.2007 I32. J84.2007 
N514 G01 Y47.6425 
N515 G03 X38. Y46.23 I38. J47.6425 
N516 G01 X46.953 
N517 G02 X51.5405 Y41.6425 I46.953 J41.6425 
N518 G01 Y41.3925 
N519 G02 X46.953 Y36.805 I46.953 J41.3925 
N520 G01 X43.7522 
N521 G03 X43.0495 Y36.6178 I43.7522 J35.3925 
N522 G01 X38.7692 Y34.163 
N523 G02 X36.4869 Y33.555 I36.4869 J38.1425 
N524 G01 X27.6193 
N525 G03 X26.2068 Y32.1425 I27.6193 J32.1425 
N526 G01 Y1.5875 
N527 X30.0318 
N528 Y25.1425 
N529 G02 X34.6193 Y29.73 I34.6193 J25.1425 
N530 G01 X36.4869 
N531 G02 X38.7692 Y29.122 I36.4869 J25.1425 
N532 G01 X43.0495 Y26.6672 
N533 G03 X43.7522 Y26.48 I43.7522 J27.8925 
N534 G01 X46.953 
N535 G02 X51.5405 Y21.8925 I46.953 J21.8925 
N536 G01 Y1.5875 
N537 X98.4595 
N538 Y41.6425 
N539 G02 X103.047 Y46.23 I103.047 J41.6425 
N540 G01 X112. 
N541 G03 X113.4125 Y47.6425 I112. J47.6425 
N542 G01 Y84.2007 
N543 G02 X114.3595 Y86.9921 I118. J84.2007 
N544 G01 X120.6209 Y95.1583 
N545 G03 X120.9125 Y96.0178 I119.5 J96.0178 
N546 G01 Y106. 
N547 G02 X126.5 Y111.5875 I126.5 J106. 
N548 G01 X138. 
N549 G02 X138.49 Y111.51 I138. J110. 
N550 X138.4125 Y112. I140. J112. 
N551 G01 Y168. 
N552 G02 X138.49 Y168.49 I140. J168. 
N553 X138. Y168.4125 I138. J170. 
N554 G01 X82. 
N555 G02 X81.51 Y168.49 I82. J170. 
N556 X81.5875 Y168. I80. J168. 
N557 G01 Y112. 
N558 G02 X81.51 Y111.51 I80. J112. 
N559 X82. Y111.5875 I82. J110. 
N560 G01 X93.5 
N561 G02 X99.0875 Y106. I93.5 J106. 
N562 G01 Y96.0178 
N563 G03 X99.3791 Y95.1583 I100.5 J96.0178 
N564 G01 X105.6405 Y86.9921 
N565 G02 X106.5875 Y84.2007 I102. J84.2007 
N566 G01 Y58.0054 
N567 G02 X102. Y53.4179 I102. J58.0054 
N568 G01 X48. 
N569 G02 X43.4125 Y58.0054 I48. J58.0054 
N570 G01 Y84.2007 
N571 G02 X44.3595 Y86.9921 I48. J84.2007 
N572 G01 X50.6209 Y95.1583 
N573 G03 X50.9125 Y96.0178 I49.5 J96.0178 
N574 G01 Y106. 
N575 G02 X56.5 Y111.5875 I56.5 J106. 
N576 G01 X68. 
N577 G02 X68.49 Y111.51 I68. J110. 
N578 X68.4125 Y112. I70. J112. 
N579 G01 Y168. 
N580 G02 X68.49 Y168.49 I70. J168. 
N581 X68. Y168.4125 I68. J170. 
N582 G01 X12. 
N583 G02 X11.51 Y168.49 I12. J170. 
N584 X11.5875 Y168. I10. J168. 
N585 G01 Y112. 
N586 G02 X11.51 Y111.51 I10. J112. 
N587 X12. Y111.5875 I12. J110. 
N588 G01 X23.5 
N589 G02 X26.3302 Y110.8177 I23.5 J106. 
N590 G00 Z10. 
N591 X111.425 Y140. 
N592 Z-2. 
N593 G01 Z-8. F300. 
N594 Y141.425 F600. 
N595 X108.575 
N596 Y134.8769 
N597 G02 X110. Y134.087 I93.5 J106. 
N598 X111.425 Y134.8769 I126.5 J106. 
N599 G01 Y140. 
N600 X113.0125 
N601 Y143.0125 
N602 X106.9875 
N603 Y133.8983 
N604 G02 X110. Y132.2293 I93.5 J106. 
N605 X113.0125 Y133.8983 I126.5 J106. 
N606 G01 Y140. 
N607 X114.6 
N608 Y144.6 
N609 X105.4 
N610 Y132.884 
N611 G02 X110. Y130.3333 I93.5 J106. 
N612 X114.6 Y132.884 I126.5 J106. 
N613 G01 Y140. 
N614 X116.1875 
N615 Y146.1875 
N616 X103.8125 
N617 Y131.83 
N618 G02 X110. Y128.3894 I93.5 J106. 
N619 X116.1875 Y131.83 I126.5 J106. 
N620 G01 Y140. 
N621 X117.775 
N622 Y147.775 
N623 X102.225 
N624 Y130.731 
N625 G02 X110. Y126.3838 I93.5 J106. 
N626 X117.775 Y130.731 I126.5 J106. 
N627 G01 Y140. 
N628 X119.3625 
N629 Y149.3625 
N630 X100.6375 
N631 Y129.581 
N632 G02 X110. Y124.2963 I93.5 J106. 
N633 X119.3625 Y129.581 I126.5 J106. 
N634 G01 Y140. 
N635 X120.95 
N636 Y150.95 
N637 X99.05 
N638 Y128.3719 
N639 G02 X110. Y122.0951 I93.5 J106. 
N640 X120.95 Y128.3719 I126.5 J106. 
N641 G01 Y140. 
N642 X122.5375 
N643 Y152.5375 
N644 X97.4625 
N645 Y127.0935 
N646 G02 X110. Y119.7255 I93.5 J106. 
N647 X122.5375 Y127.0935 I126.5 J106. 
N648 G01 Y140. 
N649 X124.125 
N650 Y154.125 
N651 X95.875 
N652 Y125.7326 
N653 G02 X110. Y117.08 I93.5 J106. 
N654 X124.125 Y125.7326 I126.5 J106. 
N655 G01 Y140. 
N656 X125.7125 
N657 Y155.7125 
N658 X94.2875 
N659 Y124.2705 
N660 G02 X110. Y113.8856 I93.5 J106. 
N661 X125.7125 Y124.2705 I126.5 J106. 
N662 G01 Y140. 
N663 X127.3 
N664 Y157.3 
N665 X92.7 
N666 Y122.7 
N667 X93.5 
N668 G02 X110. Y108.5768 I93.5 J106. 
N669 X126.5 Y122.7 I126.5 J106. 
N670 G01 X127.3 
N671 Y140. 
N672 X128.8875 
N673 Y158.8875 
N674 X91.1125 
N675 Y121.1125 
N676 X93.5 
N677 G02 X108.6125 Y106. I93.5 J106. 
N678 G01 Y98.7699 
N679 X110. Y96.9604 
N680 X111.3875 Y98.7699 
N681 Y106. 
N682 G02 X126.5 Y121.1125 I126.5 J106. 
N683 G01 X128.8875 
N684 Y140. 
N685 X130.475 
N686 Y160.475 
N687 X89.525 
N688 Y119.525 
N689 X93.5 
N690 G02 X107.025 Y106. I93.5 J106. 
N691 G01 Y98.2314 
N692 X110. Y94.3514 
N693 X112.975 Y98.2314 
N694 Y106. 
N695 G02 X126.5 Y119.525 I126.5 J106. 
N696 G01 X130.475 
N697 Y140. 
N698 X132.0625 
N699 Y162.0625 
N700 X87.9375 
N701 Y117.9375 
N702 X93.5 
N703 G02 X105.4375 Y106. I93.5 J106. 
N704 G01 Y97.6928 
N705 X110. Y91.7424 
N706 X114.5625 Y97.6928 
N707 Y106. 
N708 G02 X126.5 Y117.9375 I126.5 J106. 
N709 G01 X132.0625 
N710 Y140. 
N711 X133.65 
N712 Y163.65 
N713 X86.35 
N714 Y116.35 
N715 X93.5 
N716 G02 X103.85 Y106. I93.5 J106. 
N717 G01 Y97.1543 
N718 X109.4199 Y89.8899 
N719 G02 X110. Y89.0404 I102. J84.2007 
N720 X110.5801 Y89.8899 I118. J84.2007 
N721 G01 X116.15 Y97.1543 
N722 Y106. 
N723 G02 X126.5 Y116.35 I126.5 J106. 
N724 G01 X133.65 
N725 Y140. 
N726 X121.3516 Y108.1969 
N727 G03 X121.1566 Y107.6675 I126.5 J106. 
N728 G01 X113.6462 Y85.6777 
N729 G03 X113.4298 Y84.7009 I118. J84.2007 
N730 G01 X108.65 Y51.4328 
N731 G02 X108.184 Y50.9925 I102. J58.0054 
N732 G01 X108.65 
N733 Y51.4328 
N734 X74.647 Y29.6054 
N735 X74.2856 
N736 G02 X74.647 Y28.1857 I46.953 J21.8925 
N737 G01 Y31.1929 
N738 X72.1008 
N739 G02 X73.6967 Y23.8125 I46.953 J21.8925 
N740 G01 X76.2345 
N741 Y31.1929 
N742 X74.647 
N743 Y32.7804 
N744 X70.6624 
N745 G02 X70.2175 Y31.6425 I46.953 J41.3925 
N746 X72.1758 Y22.225 I46.953 J21.8925 
N747 G01 X77.822 
N748 Y32.7804 
N749 X74.647 
N750 Y34.368 
N751 X69.5226 
N752 G02 X68.486 Y31.6425 I46.953 J41.3925 
N753 X70.5905 Y21.8925 I46.953 J21.8925 
N754 G01 Y20.6375 
N755 X79.4095 
N756 Y34.368 
N757 X74.647 
N758 Y35.9554 
N759 X68.3222 
N760 G02 X66.7303 Y31.6425 I46.953 J41.3925 
N761 X69.003 Y21.8925 I46.953 J21.8925 
N762 G01 Y19.05 
N763 X80.997 
N764 Y35.9554 
N765 X74.647 
N766 Y37.5429 
N767 X67.0501 
N768 G02 X64.9433 Y31.6425 I46.953 J41.3925 
N769 X67.4155 Y21.8925 I46.953 J21.8925 
N770 G01 Y17.4625 
N771 X82.5845 
N772 Y37.5429 
N773 X74.647 
N774 Y39.1304 
N775 X65.692 
N776 G02 X63.1148 Y31.6425 I46.953 J41.3925 
N777 X65.828 Y21.8925 I46.953 J21.8925 
N778 G01 Y15.875 
N779 X84.172 
N780 Y39.1304 
N781 X74.647 
N782 Y40.7179 
N783 X64.2273 
N784 G02 X61.2287 Y31.6425 I46.953 J41.3925 
N785 X64.2405 Y21.8925 I46.953 J21.8925 
N786 G01 Y14.2875 
N787 X85.7595 
N788 Y40.7179 
N789 X74.647 
N790 Y42.3055 
N791 X62.639 
N792 G02 X62.653 Y41.6425 I46.953 J41.6425 
N793 G01 Y41.3925 
N794 G02 X59.2586 Y31.6425 I46.953 J41.3925 
N795 X62.653 Y21.8925 I46.953 J21.8925 
N796 G01 Y12.7 
N797 X87.347 
N798 Y41.6425 
N799 G02 X87.361 Y42.3055 I103.047 J41.6425 
N800 G01 X74.647 
N801 Y43.8929 
N802 X60.8849 
N803 G02 X61.0655 Y41.6425 I46.953 J41.6425 
N804 G01 Y41.3925 
N805 G02 X57.156 Y31.6425 I46.953 J41.3925 
N806 X61.0655 Y21.8925 I46.953 J21.8925 
N807 G01 Y11.1125 
N808 X88.9345 
N809 Y41.6425 
N810 G02 X89.1151 Y43.8929 I103.047 J41.6425 
N811 G01 X74.647 
N812 Y45.4804 
N813 X58.8755 
N814 G02 X59.478 Y41.6425 I46.953 J41.6425 
N815 G01 Y41.3925 
N816 G02 X54.8151 Y31.6425 I46.953 J41.3925 
N817 X59.478 Y21.8925 I46.953 J21.8925 
N818 G01 Y9.525 
N819 X90.522 
N820 Y41.6425 
N821 G02 X91.1245 Y45.4804 I103.047 J41.6425 
N822 G01 X74.647 
N823 Y47.0679 
N824 X56.45 
N825 G02 X57.8905 Y41.6425 I46.953 J41.6425 
N826 G01 Y41.3925 
N827 G02 X51.9095 Y31.6425 I46.953 J41.3925 
N828 X57.8905 Y21.8925 I46.953 J21.8925 
N829 G01 Y7.9375 
N830 X92.1095 
N831 Y41.6425 
N832 G02 X93.55 Y47.0679 I103.047 J41.6425 
N833 G01 X74.647 
N834 Y48.6554 
N835 X53.137 
N836 G02 X56.303 Y41.6425 I46.953 J41.6425 
N837 G01 Y41.3925 
N838 G02 X46.953 Y32.0425 I46.953 J41.3925 
N839 G01 X44.6447 
N840 X43.9472 Y31.6425 
N841 X44.6447 Y31.2425 
N842 X46.953 
N843 G02 X56.303 Y21.8925 I46.953 J21.8925 
N844 G01 Y6.35 
N845 X93.697 
N846 Y41.6425 
N847 G02 X96.863 Y48.6554 I103.047 J41.6425 
N848 G01 X74.647 
N849 X41.816 Y50.9925 
N850 G02 X41.35 Y51.4328 I48. J58.0054 
N851 G01 Y50.9925 
N852 X41.816 
N853 X40. Y134.087 
N854 G02 X41.425 Y134.8769 I56.5 J106. 
N855 G01 Y141.425 
N856 X38.575 
N857 Y134.8769 
N858 G02 X40. Y134.087 I23.5 J106. 
N859 G01 X39.1959 Y132.7182 
N860 G02 X40. Y132.2293 I23.5 J106. 
N861 X43.0125 Y133.8983 I56.5 J106. 
N862 G01 Y143.0125 
N863 X36.9875 
N864 Y133.8983 
N865 G02 X39.1959 Y132.7182 I23.5 J106. 
N866 G01 X38.3918 Y131.3495 
N867 G02 X40. Y130.3333 I23.5 J106. 
N868 X44.6 Y132.884 I56.5 J106. 
N869 G01 Y144.6 
N870 X35.4 
N871 Y132.884 
N872 G02 X38.3918 Y131.3495 I23.5 J106. 
N873 G01 X37.5877 Y129.9807 
N874 G02 X40. Y128.3894 I23.5 J106. 
N875 X46.1875 Y131.83 I56.5 J106. 
N876 G01 Y146.1875 
N877 X33.8125 
N878 Y131.83 
N879 G02 X37.5877 Y129.9807 I23.5 J106. 
N880 G01 X36.7836 Y128.6119 
N881 G02 X40. Y126.3838 I23.5 J106. 
N882 X47.775 Y130.731 I56.5 J106. 
N883 G01 Y147.775 
N884 X32.225 
N885 Y130.731 
N886 G02 X36.7836 Y128.6119 I23.5 J106. 
N887 G01 X35.9795 Y127.2431 
N888 G02 X40. Y124.2963 I23.5 J106. 
N889 X49.3625 Y129.581 I56.5 J106. 
N890 G01 Y149.3625 
N891 X30.6375 
N892 Y129.581 
N893 G02 X35.9795 Y127.2431 I23.5 J106. 
N894 G01 X35.1754 Y125.8743 
N895 G02 X40. Y122.0951 I23.5 J106. 
N896 X50.95 Y128.3719 I56.5 J106. 
N897 G01 Y150.95 
N898 X29.05 
N899 Y128.3719 
N900 G02 X35.1754 Y125.8743 I23.5 J106. 
N901 G01 X34.3713 Y124.5055 
N902 G02 X40. Y119.7255 I23.5 J106. 
N903 X52.5375 Y127.0935 I56.5 J106. 
N904 G01 Y152.5375 
N905 X27.4625 
N906 Y127.0935 
N907 G02 X34.3713 Y124.5055 I23.5 J106. 
N908 G01 X33.5672 Y123.1367 
N909 G02 X40. Y117.08 I23.5 J106. 
N910 X54.125 Y125.7326 I56.5 J106. 
N911 G01 Y154.125 
N912 X25.875 
N913 Y125.7326 
N914 G02 X33.5672 Y123.1367 I23.5 J106. 
N915 G01 X32.7631 Y121.768 
N916 G02 X40. Y113.8856 I23.5 J106. 
N917 X55.7125 Y124.2705 I56.5 J106. 
N918 G01 Y155.7125 
N919 X24.2875 
N920 Y124.2705 
N921 G02 X32.7631 Y121.768 I23.5 J106. 
N922 G01 X31.9589 Y120.3992 
N923 G02 X40. Y108.5768 I23.5 J106. 
N924 X56.5 Y122.7 I56.5 J106. 
N925 G01 X57.3 
N926 Y157.3 
N927 X22.7 
N928 Y122.7 
N929 X23.5 
N930 G02 X31.9589 Y120.3992 I23.5 J106. 
N931 G01 X31.1548 Y119.0304 
N932 G02 X38.6125 Y106. I23.5 J106. 
N933 G01 Y98.7699 
N934 X40. Y96.9604 
N935 X41.3875 Y98.7699 
N936 Y106. 
N937 G02 X56.5 Y121.1125 I56.5 J106. 
N938 G01 X58.8875 
N939 Y158.8875 
N940 X21.1125 
N941 Y121.1125 
N942 X23.5 
N943 G02 X31.1548 Y119.0304 I23.5 J106. 
N944 G01 X30.3507 Y117.6616 
N945 G02 X37.025 Y106. I23.5 J106. 
N946 G01 Y98.2314 
N947 X40. Y94.3514 
N948 X42.975 Y98.2314 
N949 Y106. 
N950 G02 X56.5 Y119.525 I56.5 J106. 
N951 G01 X60.475 
N952 Y160.475 
N953 X19.525 
N954 Y119.525 
N955 X23.5 
N956 G02 X30.3507 Y117.6616 I23.5 J106. 
N957 G01 X29.5466 Y116.2928 
N958 G02 X35.4375 Y106. I23.5 J106. 
N959 G01 Y97.6928 
N960 X40. Y91.7424 
N961 X44.5625 Y97.6928 
N962 Y106. 
N963 G02 X56.5 Y117.9375 I56.5 J106. 
N964 G01 X62.0625 
N965 Y162.0625 
N966 X17.9375 
N967 Y117.9375 
N968 X23.5 
N969 G02 X29.5466 Y116.2928 I23.5 J106. 
N970 G01 X28.7425 Y114.924 
N971 G02 X33.85 Y106. I23.5 J106. 
N972 G01 Y97.1543 
N973 X39.4199 Y89.8899 
N974 G02 X40. Y89.0404 I32. J84.2007 
N975 X40.5801 Y89.8899 I48. J84.2007 
N976 G01 X46.15 Y97.1543 
N977 Y106. 
N978 G02 X56.5 Y116.35 I56.5 J106. 
N979 G01 X63.65 
N980 Y163.65 
N981 X16.35 
N982 Y116.35 
N983 X23.5 
N984 G02 X28.7425 Y114.924 I23.5 J106. 
N985 G01 X27.9384 Y113.5553 
N986 G02 X32.2625 Y106. I23.5 J106. 
N987 G01 Y96.6157 
N988 X38.1601 Y88.924 
N989 G02 X39.7625 Y84.2007 I32. J84.2007 
N990 G01 Y49.405 
N991 X46.953 
N992 G02 X54.7155 Y41.6425 I46.953 J41.6425 
N993 G01 Y41.3925 
N994 G02 X46.953 Y33.63 I46.953 J41.3925 
N995 G01 X44.2218 
N996 X40.7563 Y31.6425 
N997 X44.2218 Y29.655 
N998 X46.953 
N999 G02 X54.7155 Y21.8925 I46.953 J21.8925 
N1000 G01 Y4.7625 
N1001 X95.2845 
N1002 Y41.6425 
N1003 G02 X103.047 Y49.405 I103.047 J41.6425 
N1004 G01 X110.2375 
N1005 Y84.2007 
N1006 G02 X111.8399 Y88.924 I118. J84.2007 
N1007 G01 X117.7375 Y96.6157 
N1008 Y106. 
N1009 G02 X126.5 Y114.7625 I126.5 J106. 
N1010 G01 X135.2375 
N1011 Y165.2375 
N1012 X84.7625 
N1013 Y114.7625 
N1014 X93.5 
N1015 G02 X102.2625 Y106. I93.5 J106. 
N1016 G01 Y96.6157 
N1017 X108.1601 Y88.924 
N1018 G02 X109.7625 Y84.2007 I102. J84.2007 
N1019 G01 Y58.0054 
N1020 G02 X102. Y50.243 I102. J58.0054 
N1021 G01 X48. 
N1022 G02 X40.2375 Y58.0054 I48. J58.0054 
N1023 G01 Y84.2007 
N1024 G02 X41.8399 Y88.924 I48. J84.2007 
N1025 G01 X47.7375 Y96.6157 
N1026 Y106. 
N1027 G02 X56.5 Y114.7625 I56.5 J106. 
N1028 G01 X65.2375 
N1029 Y165.2375 
N1030 X14.7625 
N1031 Y114.7625 
N1032 X23.5 
N1033 G02 X27.9384 Y113.5553 I23.5 J106. 
N1034 G01 X27.1343 Y112.1865 
N1035 G02 X30.675 Y106. I23.5 J106. 
N1036 G01 Y96.0771 
N1037 X36.9003 Y87.958 
N1038 G02 X38.175 Y84.2007 I32. J84.2007 
N1039 G01 Y47.8175 
N1040 X46.953 
N1041 G02 X53.128 Y41.6425 I46.953 J41.6425 
N1042 G01 Y41.3925 
N1043 G02 X46.953 Y35.2175 I46.953 J41.3925 
N1044 G01 X43.7988 
N1045 X39.559 Y32.7859 
N1046 G02 X36.4869 Y31.9675 I36.4869 J38.1425 
N1047 G01 X27.7943 
N1048 Y3.175 
N1049 X28.4443 
N1050 Y25.1425 
N1051 G02 X34.6193 Y31.3175 I34.6193 J25.1425 
N1052 G01 X36.4869 
N1053 G02 X39.559 Y30.4991 I36.4869 J25.1425 
N1054 G01 X43.7988 Y28.0675 
N1055 X46.953 
N1056 G02 X53.128 Y21.8925 I46.953 J21.8925 
N1057 G01 Y3.175 
N1058 X96.872 
N1059 Y41.6425 
N1060 G02 X103.047 Y47.8175 I103.047 J41.6425 
N1061 G01 X111.825 
N1062 Y84.2007 
N1063 G02 X113.0997 Y87.958 I118. J84.2007 
N1064 G01 X119.325 Y96.0771 
N1065 Y106. 
N1066 G02 X126.5 Y113.175 I126.5 J106. 
N1067 G01 X136.825 
N1068 Y166.825 
N1069 X83.175 
N1070 Y113.175 
N1071 X93.5 
N1072 G02 X100.675 Y106. I93.5 J106. 
N1073 G01 Y96.0771 
N1074 X106.9003 Y87.958 
N1075 G02 X108.175 Y84.2007 I102. J84.2007 
N1076 G01 Y58.0054 
N1077 G02 X102. Y51.8304 I102. J58.0054 
N1078 G01 X48. 
N1079 G02 X41.825 Y58.0054 I48. J58.0054 
N1080 G01 Y84.2007 
N1081 G02 X43.0997 Y87.958 I48. J84.2007 
N1082 G01 X49.325 Y96.0771 
N1083 Y106. 
N1084 G02 X56.5 Y113.175 I56.5 J106. 
N1085 G01 X66.825 
N1086 Y166.825 
N1087 X13.175 
N1088 Y113.175 
N1089 X23.5 
N1090 G02 X27.1343 Y112.1865 I23.5 J106. 
N1091 G01 X26.3302 Y110.8177 
N1092 G02 X29.0875 Y106. I23.5 J106. 
N1093 G01 Y96.0178 
N1094 G03 X29.3791 Y95.1583 I30.5 J96.0178 
N1095 G01 X35.6405 Y86.9921 
N1096 G02 X36.5875 Y84.2007 I32. J84.2007 
N1097 G01 Y47.6425 
N1098 G03 X38. Y46.23 I38. J47.6425 
N1099 G01 X46.953 
N1100 G02 X51.5405 Y41.6425 I46.953 J41.6425 
N1101 G01 Y41.3925 
N1102 G02 X46.953 Y36.805 I46.953 J41.3925 
N1103 G01 X43.7522 
N1104 G03 X43.0495 Y36.6178 I43.7522 J35.3925 
N1105 G01 X38.7692 Y34.163 
N1106 G02 X36.4869 Y33.555 I36.4869 J38.1425 
N1107 G01 X27.6193 
N1108 G03 X26.2068 Y32.1425 I27.6193 J32.1425 
N1109 G01 Y1.5875 
N1110 X30.0318 
N1111 Y25.1425 
N1112 G02 X34.6193 Y29.73 I34.6193 J25.1425 
N1113 G01 X36.4869 
N1114 G02 X38.7692 Y29.122 I36.4869 J25.1425 
N1115 G01 X43.0495 Y26.6672 
N1116 G03 X43.7522 Y26.48 I43.7522 J27.8925 
N1117 G01 X46.953 
N1118 G02 X51.5405 Y21.8925 I46.953 J21.8925 
N1119 G01 Y1.5875 
N1120 X98.4595 
N1121 Y41.6425 
N1122 G02 X103.047 Y46.23 I103.047 J41.6425 
N1123 G01 X112. 
N1124 G03 X113.4125 Y47.6425 I112. J47.6425 
N1125 G01 Y84.2007 
N1126 G02 X114.3595 Y86.9921 I118. J84.2007 
N1127 G01 X120.6209 Y95.1583 
N1128 G03 X120.9125 Y96.0178 I119.5 J96.0178 
N1129 G01 Y106. 
N1130 G02 X126.5 Y111.5875 I126.5 J106. 
N1131 G01 X138. 
N1132 G02 X138.49 Y111.51 I138. J110. 
N1133 X138.4125 Y112. I140. J112. 
N1134 G01 Y168. 
N1135 G02 X138.49 Y168.49 I140. J168. 
N1136 X138. Y168.4125 I138. J170. 
N1137 G01 X82. 
N1138 G02 X81.51 Y168.49 I82. J170. 
N1139 X81.5875 Y168. I80. J168. 
N1140 G01 Y112. 
N1141 G02 X81.51 Y111.51 I80. J112. 
N1142 X82. Y111.5875 I82. J110. 
N1143 G01 X93.5 
N1144 G02 X99.0875 Y106. I93.5 J106. 
N1145 G01 Y96.0178 
N1146 G03 X99.3791 Y95.1583 I100.5 J96.0178 
N1147 G01 X105.6405 Y86.9921 
N1148 G02 X106.5875 Y84.2007 I102. J84.2007 
N1149 G01 Y58.0054 
N1150 G02 X102. Y53.4179 I102. J58.0054 
N1151 G01 X48. 
N1152 G02 X43.4125 Y58.0054 I48. J58.0054 
N1153 G01 Y84.2007 
N1154 G02 X44.3595 Y86.9921 I48. J84.2007 
N1155 G01 X50.6209 Y95.1583 
N1156 G03 X50.9125 Y96.0178 I49.5 J96.0178 
N1157 G01 Y106. 
N1158 G02 X56.5 Y111.5875 I56.5 J106. 
N1159 G01 X68. 
N1160 G02 X68.49 Y111.51 I68. J110. 
N1161 X68.4125 Y112. I70. J112. 
N1162 G01 Y168. 
N1163 G02 X68.49 Y168.49 I70. J168. 
N1164 X68. Y168.4125 I68. J170. 
N1165 G01 X12. 
N1166 G02 X11.51 Y168.49 I12. J170. 
N1167 X11.5875 Y168. I10. J168. 
N1168 G01 Y112. 
N1169 G02 X11.51 Y111.51 I10. J112. 
N1170 X12. Y111.5875 I12. J110. 
N1171 G01 X23.5 
N1172 G02 X26.3302 Y110.8177 I23.5 J106. 
N1173 G00 Z10. 
N1174 X140.2917 Y109.7083 
N1175 Z2. 
N1176 G01 Z-4. F300. 
N1177 G03 X140. Y110.4125 I140. J110. F600. 
N1178 G02 X139.51 Y110.49 I140. J112. 
N1179 X139.5875 Y110. I138. J110. 
N1180 G03 X140.2917 Y109.7083 I140. J110. 
N1181 G01 Z-8. F300. 
N1182 G03 X140. Y110.4125 I140. J110. F600. 
N1183 G02 X139.51 Y110.49 I140. J112. 
N1184 X139.5875 Y110. I138. J110. 
N1185 G03 X140.2917 Y109.7083 I140. J110. 
N1186 G00 Z10. 
N1187 Y170.2917 
N1188 Z2. 
N1189 G01 Z-4. F300. 
N1190 G03 X139.5875 Y170. I140. J170. F600. 
N1191 G02 X139.51 Y169.51 I138. J170. 
N1192 X140. Y169.5875 I140. J168. 
N1193 G03 X140.2917 Y170.2917 I140. J170. 
N1194 G01 Z-8. F300. 
N1195 G03 X139.5875 Y170. I140. J170. F600. 
N1196 G02 X139.51 Y169.51 I138. J170. 
N1197 X140. Y169.5875 I140. J168. 
N1198 G03 X140.2917 Y170.2917 I140. J170. 
N1199 G00 Z10. 
N1200 X79.7083 
N1201 Z2. 
N1202 G01 Z-4. F300. 
N1203 G03 X80. Y169.5875 I80. J170. F600. 
N1204 G02 X80.49 Y169.51 I80. J168. 
N1205 X80.4125 Y170. I82. J170. 
N1206 G03 X79.7083 Y170.2917 I80. J170. 
N1207 G01 Z-8. F300. 
N1208 G03 X80. Y169.5875 I80. J170. F600. 
N1209 G02 X80.49 Y169.51 I80. J168. 
N1210 X80.4125 Y170. I82. J170. 
N1211 G03 X79.7083 Y170.2917 I80. J170. 
N1212 G00 Z10. 
N1213 Y109.7083 
N1214 Z2. 
N1215 G01 Z-4. F300. 
N1216 G03 X80.4125 Y110. I80. J110. F600. 
N1217 G02 X80.49 Y110.49 I82. J110. 
N1218 X80. Y110.4125 I80. J112. 
N1219 G03 X79.7083 Y109.7083 I80. J110. 
N1220 G01 Z-8. F300. 
N1221 G03 X80.4125 Y110. I80. J110. F600. 
N1222 G02 X80.49 Y110.49 I82. J110. 
N1223 X80. Y110.4125 I80. J112. 
N1224 G03 X79.7083 Y109.7083 I80. J110. 
N1225 G00 Z10. 
N1226 X70.2917 
N1227 Z2. 
N1228 G01 Z-4. F300. 
N1229 G03 X70. Y110.4125 I70. J110. F600. 
N1230 G02 X69.51 Y110.49 I70. J112. 
N1231 X69.5875 Y110. I68. J110. 
N1232 G03 X70.2917 Y109.7083 I70. J110. 
N1233 G01 Z-8. F300. 
N1234 G03 X70. Y110.4125 I70. J110. F600. 
N1235 G02 X69.51 Y110.49 I70. J112. 
N1236 X69.5875 Y110. I68. J110. 
N1237 G03 X70.2917 Y109.7083 I70. J110. 
N1238 G00 Z10. 
N1239 Y170.2917 
N1240 Z2. 
N1241 G01 Z-4. F300. 
N1242 G03 X69.5875 Y170. I70. J170. F600. 
N1243 G02 X69.51 Y169.51 I68. J170. 
N1244 X70. Y169.5875 I70. J168. 
N1245 G03 X70.2917 Y170.2917 I70. J170. 
N1246 G01 Z-8. F300. 
N1247 G03 X69.5875 Y170. I70. J170. F600. 
N1248 G02 X69.51 Y169.51 I68. J170. 
N1249 X70. Y169.5875 I70. J168. 
N1250 G03 X70.2917 Y170.2917 I70. J170. 
N1251 G00 Z10. 
N1252 X9.7083 
N1253 Z2. 
N1254 G01 Z-4. F300. 
N1255 G03 X10. Y169.5875 I10. J170. F600. 
N1256 G02 X10.49 Y169.51 I10. J168. 
N1257 X10.4125 Y170. I12. J170. 
N1258 G03 X9.7083 Y170.2917 I10. J170. 
N1259 G01 Z-8. F300. 
N1260 G03 X10. Y169.5875 I10. J170. F600. 
N1261 G02 X10.49 Y169.51 I10. J168. 
N1262 X10.4125 Y170. I12. J170. 
N1263 G03 X9.7083 Y170.2917 I10. J170. 
N1264 G00 Z10. 
N1265 Y109.7083 
N1266 Z2. 
N1267 G01 Z-4. F300. 
N1268 G03 X10.4125 Y110. I10. J110. F600. 
N1269 G02 X10.49 Y110.49 I12. J110. 
N1270 X10. Y110.4125 I10. J112. 
N1271 G03 X9.7083 Y109.7083 I10. J110. 
N1272 G01 Z-8. F300. 
N1273 G03 X10.4125 Y110. I10. J110. F600. 
N1274 G02 X10.49 Y110.49 I12. J110. 
N1275 X10. Y110.4125 I10. J112. 
N1276 G03 X9.7083 Y109.7083 I10. J110. 
N1277 G00 Z10. 
N1278 (D-drill)
N1279 X6. Y194. 
N1280 Z10. 
N1281 Z2. 
N1282 G01 Z-2. F300. 
N1283 G00 Z2. 
N1284 Z0. 
N1285 G01 Z-4. 
N1286 G00 Z2. 
N1287 Z-2. 
N1288 G01 Z-6. 
N1289 G00 Z2. 
N1290 Z-4. 
N1291 G01 Z-8. 
N1292 G00 Z2. 
N1293 Z-6. 
N1294 G01 Z-10. 
N1295 G00 Z2. 
N1296 Z-8. 
N1297 G01 Z-10. 
N1298 G00 Z10. 
N1299 X75. 
N1300 Z2. 
N1301 G01 Z-2. 
N1302 G00 Z2. 
N1303 Z0. 
N1304 G01 Z-4. 
N1305 G00 Z2. 
N1306 Z-2. 
N1307 G01 Z-6. 
N1308 G00 Z2. 
N1309 Z-4. 
N1310 G01 Z-8. 
N1311 G00 Z2. 
N1312 Z-6. 
N1313 G01 Z-10. 
N1314 G00 Z2. 
N1315 Z-8. 
N1316 G01 Z-10. 
N1317 G00 Z10. 
N1318 X144. 
N1319 Z2. 
N1320 G01 Z-2. 
N1321 G00 Z2. 
N1322 Z0. 
N1323 G01 Z-4. 
N1324 G00 Z2. 
N1325 Z-2. 
N1326 G01 Z-6. 
N1327 G00 Z2. 
N1328 Z-4. 
N1329 G01 Z-8. 
N1330 G00 Z2. 
N1331 Z-6. 
N1332 G01 Z-10. 
N1333 G00 Z2. 
N1334 Z-8. 
N1335 G01 Z-10. 
N1336 G00 Z10. 
N1337 Y134. 
N1338 Z2. 
N1339 G01 Z-2. 
N1340 G00 Z2. 
N1341 Z0. 
N1342 G01 Z-4. 
N1343 G00 Z2. 
N1344 Z-2. 
N1345 G01 Z-6. 
N1346 G00 Z2. 
N1347 Z-4. 
N1348 G01 Z-8. 
N1349 G00 Z2. 
N1350 Z-6. 
N1351 G01 Z-10. 
N1352 G00 Z2. 
N1353 Z-8. 
N1354 G01 Z-10. 
N1355 G00 Z10. 
N1356 X75. 
N1357 Z2. 
N1358 G01 Z-2. 
N1359 G00 Z2. 
N1360 Z0. 
N1361 G01 Z-4. 
N1362 G00 Z2. 
N1363 Z-2. 
N1364 G01 Z-6. 
N1365 G00 Z2. 
N1366 Z-4. 
N1367 G01 Z-8. 
N1368 G00 Z2. 
N1369 Z-6. 
N1370 G01 Z-10. 
N1371 G00 Z2. 
N1372 Z-8. 
N1373 G01 Z-10. 
N1374 G00 Z10. 
N1375 X6. 
N1376 Z2. 
N1377 G01 Z-2. 
N1378 G00 Z2. 
N1379 Z0. 
N1380 G01 Z-4. 
N1381 G00 Z2. 
N1382 Z-2. 
N1383 G01 Z-6. 
N1384 G00 Z2. 
N1385 Z-4. 
N1386 G01 Z-8. 
N1387 G00 Z2. 
N1388 Z-6. 
N1389 G01 Z-10. 
N1390 G00 Z2. 
N1391 Z-8. 
N1392 G01 Z-10. 
N1393 G00 Z10. 
N1394 Y66. 
N1395 Z2. 
N1396 G01 Z-2. 
N1397 G00 Z2. 
N1398 Z0. 
N1399 G01 Z-4. 
N1400 G00 Z2. 
N1401 Z-2. 
N1402 G01 Z-6. 
N1403 G00 Z2. 
N1404 Z-4. 
N1405 G01 Z-8. 
N1406 G00 Z2. 
N1407 Z-6. 
N1408 G01 Z-10. 
N1409 G00 Z2. 
N1410 Z-8. 
N1411 G01 Z-10. 
N1412 G00 Z10. 
N1413 X75. 
N1414 Z2. 
N1415 G01 Z-2. 
N1416 G00 Z2. 
N1417 Z0. 
N1418 G01 Z-4. 
N1419 G00 Z2. 
N1420 Z-2. 
N1421 G01 Z-6. 
N1422 G00 Z2. 
N1423 Z-4. 
N1424 G01 Z-8. 
N1425 G00 Z2. 
N1426 Z-6. 
N1427 G01 Z-10. 
N1428 G00 Z2. 
N1429 Z-8. 
N1430 G01 Z-10. 
N1431 G00 Z10. 
N1432 X144. 
N1433 Z2. 
N1434 G01 Z-2. 
N1435 G00 Z2. 
N1436 Z0. 
N1437 G01 Z-4. 
N1438 G00 Z2. 
N1439 Z-2. 
N1440 G01 Z-6. 
N1441 G00 Z2. 
N1442 Z-4. 
N1443 G01 Z-8. 
N1444 G00 Z2. 
N1445 Z-6. 
N1446 G01 Z-10. 
N1447 G00 Z2. 
N1448 Z-8. 
N1449 G01 Z-10. 
N1450 G00 Z10. 
N1451 Y6. 
N1452 Z2. 
N1453 G01 Z-2. 
N1454 G00 Z2. 
N1455 Z0. 
N1456 G01 Z-4. 
N1457 G00 Z2. 
N1458 Z-2. 
N1459 G01 Z-6. 
N1460 G00 Z2. 
N1461 Z-4. 
N1462 G01 Z-8. 
N1463 G00 Z2. 
N1464 Z-6. 
N1465 G01 Z-10. 
N1466 G00 Z2. 
N1467 Z-8. 
N1468 G01 Z-10. 
N1469 G00 Z10. 
N1470 X6. 
N1471 Z2. 
N1472 G01 Z-2. 
N1473 G00 Z2. 
N1474 Z0. 
N1475 G01 Z-4. 
N1476 G00 Z2. 
N1477 Z-2. 
N1478 G01 Z-6. 
N1479 G00 Z2. 
N1480 Z-4. 
N1481 G01 Z-8. 
N1482 G00 Z2. 
N1483 Z-6. 
N1484 G01 Z-10. 
N1485 G00 Z2. 
N1486 Z-8. 
N1487 G01 Z-10. 
N1488 G00 Z10. 
N1489 (F-contour1)
N1490 X3. Y-1.5875 
N1491 Z10. 
N1492 Z2. 
N1493 G01 Z-2. 
N1494 G02 X-1.5875 Y3. I3. J3. F600. 
N1495 G01 Y197. 
N1496 G02 X3. Y201.5875 I3. J197. 
N1497 G01 X147. 
N1498 G02 X151.5875 Y197. I147. J197. 
N1499 G01 Y3. 
N1500 G02 X147. Y-1.5875 I147. J3. 
N1501 G01 X3. 
N1502 Z-4. F300. 
N1503 G02 X-1.5875 Y3. I3. J3. F600. 
N1504 G01 Y197. 
N1505 G02 X3. Y201.5875 I3. J197. 
N1506 G01 X147. 
N1507 G02 X151.5875 Y197. I147. J197. 
N1508 G01 Y3. 
N1509 G02 X147. Y-1.5875 I147. J3. 
N1510 G01 X3. 
N1511 Z-6. F300. 
N1512 G02 X-1.5875 Y3. I3. J3. F600. 
N1513 G01 Y197. 
N1514 G02 X3. Y201.5875 I3. J197. 
N1515 G01 X147. 
N1516 G02 X151.5875 Y197. I147. J197. 
N1517 G01 Y3. 
N1518 G02 X147. Y-1.5875 I147. J3. 
N1519 G01 X3. 
N1520 Z-8. F300. 
N1521 G02 X-1.5875 Y3. I3. J3. F600. 
N1522 G01 Y197. 
N1523 G02 X3. Y201.5875 I3. J197. 
N1524 G01 X147. 
N1525 G02 X151.5875 Y197. I147. J197. 
N1526 G01 Y3. 
N1527 G02 X147. Y-1.5875 I147. J3. 
N1528 G01 X3. 
N1529 Z-10. F300. 
N1530 G02 X-1.5875 Y3. I3. J3. F600. 
N1531 G01 Y197. 
N1532 G02 X3. Y201.5875 I3. J197. 
N1533 G01 X147. 
N1534 G02 X151.5875 Y197. I147. J197. 
N1535 G01 Y3. 
N1536 G02 X147. Y-1.5875 I147. J3. 
N1537 G01 X3. 
N1538 G00 Z10. 
N1539 M05 
N1540 M30 
%