%
N2 (Post Rev 1.0)
N3 (OCT-08-2015-1:52:10PM)
N4 (TOOL 1 - DIA 3.175)
G17 G40 G80 G00 G21
N5 M06 T1 ()
N6 (P-contour)
N7 G00 G54 X27. Y163. A0. S1000 M03 
N8 Z10. 
N9 Z2. 
N10 G01 G94 Z-4. F300. 
N11 X37. F800. 
N12 X17. 
N13 X27. 
N14 G00 Z10. 
N15 X53. 
N16 Z2. 
N17 G01 Z-4. F300. 
N18 X63. F800. 
N19 X43. 
N20 X53. 
N21 G00 Z10. 
N22 X97. 
N23 Z2. 
N24 G01 Z-4. F300. 
N25 X107. F800. 
N26 X87. 
N27 X97. 
N28 G00 Z10. 
N29 X123. 
N30 Z2. 
N31 G01 Z-4. F300. 
N32 X133. F800. 
N33 X113. 
N34 X123. 
N35 G00 Z10. 
N36 X23. Y126. 
N37 Z2. 
N38 G01 Z-4. F300. 
N39 X13. F800. 
N40 X33. 
N41 X23. 
N42 G00 Z10. 
N43 X57. 
N44 Z2. 
N45 G01 Z-4. F300. 
N46 X47. F800. 
N47 X67. 
N48 X57. 
N49 G00 Z10. 
N50 X93. 
N51 Z2. 
N52 G01 Z-4. F300. 
N53 X103. F800. 
N54 X83. 
N55 X93. 
N56 G00 Z10. 
N57 X127. 
N58 Z2. 
N59 G01 Z-4. F300. 
N60 X117. F800. 
N61 X137. 
N62 X127. 
N63 G00 Z10. 
N64 (D-drill)
N65 X6. Y6. 
N66 Z10. 
N67 Z2. 
N68 G01 Z-2. F300. 
N69 G00 Z2. 
N70 Z0. 
N71 G01 Z-4. 
N72 G00 Z2. 
N73 Z-2. 
N74 G01 Z-4. 
N75 G00 Z10. 
N76 Y66. 
N77 Z2. 
N78 G01 Z-2. 
N79 G00 Z2. 
N80 Z0. 
N81 G01 Z-4. 
N82 G00 Z2. 
N83 Z-2. 
N84 G01 Z-4. 
N85 G00 Z10. 
N86 Y134. 
N87 Z2. 
N88 G01 Z-2. 
N89 G00 Z2. 
N90 Z0. 
N91 G01 Z-4. 
N92 G00 Z2. 
N93 Z-2. 
N94 G01 Z-4. 
N95 G00 Z10. 
N96 Y194. 
N97 Z2. 
N98 G01 Z-2. 
N99 G00 Z2. 
N100 Z0. 
N101 G01 Z-4. 
N102 G00 Z2. 
N103 Z-2. 
N104 G01 Z-4. 
N105 G00 Z10. 
N106 X75. 
N107 Z2. 
N108 G01 Z-2. 
N109 G00 Z2. 
N110 Z0. 
N111 G01 Z-4. 
N112 G00 Z2. 
N113 Z-2. 
N114 G01 Z-4. 
N115 G00 Z10. 
N116 Y134. 
N117 Z2. 
N118 G01 Z-2. 
N119 G00 Z2. 
N120 Z0. 
N121 G01 Z-4. 
N122 G00 Z2. 
N123 Z-2. 
N124 G01 Z-4. 
N125 G00 Z10. 
N126 Y66. 
N127 Z2. 
N128 G01 Z-2. 
N129 G00 Z2. 
N130 Z0. 
N131 G01 Z-4. 
N132 G00 Z2. 
N133 Z-2. 
N134 G01 Z-4. 
N135 G00 Z10. 
N136 Y6. 
N137 Z2. 
N138 G01 Z-2. 
N139 G00 Z2. 
N140 Z0. 
N141 G01 Z-4. 
N142 G00 Z2. 
N143 Z-2. 
N144 G01 Z-4. 
N145 G00 Z10. 
N146 X144. 
N147 Z2. 
N148 G01 Z-2. 
N149 G00 Z2. 
N150 Z0. 
N151 G01 Z-4. 
N152 G00 Z2. 
N153 Z-2. 
N154 G01 Z-4. 
N155 G00 Z10. 
N156 Y66. 
N157 Z2. 
N158 G01 Z-2. 
N159 G00 Z2. 
N160 Z0. 
N161 G01 Z-4. 
N162 G00 Z2. 
N163 Z-2. 
N164 G01 Z-4. 
N165 G00 Z10. 
N166 Y134. 
N167 Z2. 
N168 G01 Z-2. 
N169 G00 Z2. 
N170 Z0. 
N171 G01 Z-4. 
N172 G00 Z2. 
N173 Z-2. 
N174 G01 Z-4. 
N175 G00 Z10. 
N176 Y194. 
N177 Z2. 
N178 G01 Z-2. 
N179 G00 Z2. 
N180 Z0. 
N181 G01 Z-4. 
N182 G00 Z2. 
N183 Z-2. 
N184 G01 Z-4. 
N185 G00 Z10. 
N186 (F-contour1)
N187 X3. Y-1.5875 
N188 Z10. 
N189 Z2. 
N190 G01 Z-4. 
N191 G02 X-1.5875 Y3. I3. J3. F800. 
N192 G01 Y197. 
N193 G02 X3. Y201.5875 I3. J197. 
N194 G01 X147. 
N195 G02 X151.5875 Y197. I147. J197. 
N196 G01 Y3. 
N197 G02 X147. Y-1.5875 I147. J3. 
N198 G01 X3. 
N199 G00 Z10. 
N200 M05 
N201 M30 
%